X:1
T:Deus meus es tu
T:Leo non Papa edit BMarble
T:Deus meus es tu
T:Copyright © 2017 by The Choral Public Domain Library. Edition may be freely distributed, duplicated, performed or recorded.
T:Copyright © 2017 by The Choral Public Domain Library. Edition may be freely distributed, duplicated, performed or recorded.
T:Copyright © 2017 by The Choral Public Domain Library. Edition may be freely distributed, duplicated, performed or recorded.
T:Copyright © 2017 by The Choral Public Domain Library. Edition may be freely distributed, duplicated, performed or recorded.
T:Copyright © 2017 by The Choral Public Domain Library. Edition may be freely distributed, duplicated, performed or recorded.
T:Copyright © 2017 by The Choral Public Domain Library. Edition may be freely distributed, duplicated, performed or recorded.
T:Copyright © 2017 by The Choral Public Domain Library. Edition may be freely distributed, duplicated, performed or recorded.
T:Copyright © 2017 by The Choral Public Domain Library. Edition may be freely distributed, duplicated, performed or recorded.
C:Leo non Papa
C:edit BMarble
Z:Copyright © 2017 by The Choral Public Domain Library. Edition may be freely distributed, duplicated, performed or recorded.
%%score [ 1 2 3 4 ]
L:1/8
Q:1/2=88
M:4/2
K:G
V:1 treble nm="SOPRANO" snm="S."
V:2 treble nm="ALTO" snm="A."
V:3 treble-8 transpose=-12 nm="TENOR" snm="T."
V:4 bass nm="BASS" snm="B."
V:1
"^Ps 22:12 Do not stay far from me,for trouble is near,and there is no one to help.""^Prima Pars" E8 A8- | %1
w: De- us|
 (A4 G4) F8 | E6 F2 G2 A2 B4- | B2 A2 (A8 ^G4) | A8 z8 | z16 | z16 | z4 B4 c8 | d8 c4 B4- | %9
w: _ _ me-|us _ _ _ _|_ _ es _|tu,|||De- us|me- us es|
 B2 A2 A6 ^GF G4 | A16 | z4 A4 =G4 E4 | E4 (E2 F2 G2 A2) B4 | z4 E4 B4 B4 | (A8 G6 F2 | %15
w: _ _ _ _ _ _|tu,|ne dis- ce-|das a _ _ _ me,|ne di- sce-|das _ _|
 E4) c6 B2 A2 G2 | A2 G2 G2 FE F8 | E4 E6 F2 G4 |S E4 A4 G4 E4 | F4 A4 B4 =c4 | A4 G4 F4 F4 | %21
w: _ a _ _ _|_ _ _ _ _ _|me quo- ni- am|tri- bu- la- ti-|o, quo- ni- am|tri- bu- la- ti-|
 E4 A6 A2 !courtesy!^G4 | A4 A4 ^F4 =G4 | E4 A4 G4 E4 | !courtesy!=F4 D4 E4 E4 | C4 z4 z8 | %26
w: o, quo- ni- am|tri- bu- la- ti-|o pro- xi- ma|est, pro- xi- ma|est,|
 z4 A6 A2 ^G4 | A4 E4 ^F4 =G4 | E4 (G8 F4-) | F2 E2 (E8 ^D4) | E4 E8 E4 | G8 (=D6 E2) |: %32
w: quo- ni- am|tri- bu- la- ti-|o pro- *|* xi- ma _|est, et non|est qui _|
 (F6 G2 A6 G2 | E6 F2) (G6 A2) | B8 z8 | B8 A8 | =G4 E4 (E2 F2) (G2 A2) || %37
w: ad- * * *|* * iu- *|vet,|et non|est qui ad- * ju- *|
[M:3/1] B4 (c6 B2 A8) ^G4 ||1[M:4/2] A4 E8 E4 | =G8 (D6 E2) :|2"^ad Secundum" A16 ||3 A8 A8- || %42
w: vet, ad- * * ju-|vet, et non|est qui _|vet.|vet, et|
 A4 G4 =F4 E4 | =F12 F4 | E16- | E16!fine! |] %46
w: _ non est qui|ad- ju-|vet.|_|
"^Ps 22:20 But you, O Lord, do not keep your help far from me; my strength, hasten to aid me.""^Secunda Pars" E8 A8- | %47
w: Tu au-|
 A4 G4 c4 B2 A2 | B4 c6 B2 A4- | A2 ^GF G4 A8 | z16 | z16 | E16- | E8 ^F4 F4 | =G4 G4 G4 F4 | %55
w: * tem Do- * *||* * * mi- ne,|||ne|_ e- lon-|ga- ve- ris au-|
 E6 E2 E4 E4 | E4 ^D4 E8- | E16- | E8 z4 A4 | A4 G4 F4 F4 | E4 c4 c4 c4 | B6 A2 G4 A4 | E8 z8 | %63
w: xi- li- um tu-|um a me,|_|* au-|xi- li- um tu-|um, au- xi- li-|um tu- um a|me,|
 z16 | z4 A4 A4 A4 | =G6 ^F2 E4 A4- | (A2 ^GF G4) A4 E4 | (E6 ^F2 =G2 A2) B4- | B4 A8 F4 | %69
w: |au- xi- li-|um tu- um a|_ _ _ _ me, ad|de- * * * fen-|* si- o-|
 G4 E2 F2 G2 A2 B2 c2 | d2 B2 (c6 B2) A4- | A4 ^G4 A8 | z16 | z4 F4 B4 B4 | c4 A8 B4- | %75
w: nem me- * * * * *|* * am _ ad-|* spi- ce,||ad de- fen-|si- o- nem|
 B4 (c6 B2 A2 G2) | (A2 G2) (G2 FE F4) F4 | E4 E6 F2 G4!D.S.! |] %78
w: _ me- * * *|am _ ad- * * * spi-|ce, quo- ni- am|
V:2
 z8 A,8 | (E12 D4) | C8 B,4 D4- | D2 C2 C2 B,A, B,8 | A,8 z8 | z16 | z8 z4 D4- | D4 D4 C8 | %8
w: De-|us _|me- us es|_ _ _ _ _ _|tu,||De-|* us me-|
 B,4 =G4 E4 G4 | (E4 !courtesy!=F4) E8 | E4 z2 E2 E4 C4 | A,4 (A,2 B,2 C2 D2) E4 | z4 C4 B,6 A,2 | %13
w: us, De- us me-|us _ es|tu, ne dis- ce-|das a _ _ _ me|ne di- sce-|
 =G,4 A,4 E,8 | z4 A,4 B,4 B,4 | C8 A,6 B,2 | C2 D2 E6 ^D^C D4 | E8 E,8 | z4 =D6 D2 !courtesy!^C4 | %19
w: das a me,|ne di- sce-|das a _|_ _ _ _ _ _|* me|quo- ni- am|
 D4 F4 E4 E4 | D4 E6 E2 ^D4 | E4 =C4 =D4 E4 | A,4 C4 B,4 B,4 | A,8 z8 | z4 A,6 A,2 !courtesy!^G,4 | %25
w: tri- bu- la- ti-|o, quo- ni- am|tri- bu- la- ti-|o pro- xi- ma|est,|quo- ni- am|
 A,4 E,4 =G,4 ^F,4 | E,4 E4 !courtesy!=F4 E4 | (C8 B,8) | z4 E8 D4 | (C4 A,4) B,8- | B,8 z4 G,4- | %31
w: tri- bu- la- ti-|o pro- xi- ma|est, _|pro xi-|ma _ est|_ et|
 (G,2 A,2) (B,6 C2 D4-) |: (D2 C2) (A,6 B,2 C4-) | (C2 D2 E6 D2) B,4- | %34
w: _ _ non _ _|_ _ est _ _|_ _ _ _ qui|
 (B,2 C2 D4) !courtesy!^C4 (D4 | B,4) E,4 z4 A,4 | E4 (=C8 B,2 A,2 || %37
w: _ _ _ ad- ju-|* vet, et|non est _ _|
[M:3/1] G,4) C4 (E4 =F4) E8 ||1[M:4/2] E8 z4 G,4- | (G,2 A,2) (B,6 C2 (D4) :|2 E16) ||3 =C8 =F8- || %42
w: _ qui ad- * ju-|vet, et|_ _ non _ _|vet.|vet, et|
 F4 E4 D4 !courtesy!^C4 | D12 D4- | (D4 ^C2 B,2 C6 D2) | ^C16 |] z8 A,8 | E12 D4 | %48
w: _ non est qui|ad- ju-||vet.|Tu|au- tem|
 G2 F2 E2 D2 C4 D4 | B,4 B,4 A,4 C4 | B,6 A,2 G,4 F,4 | E,4 A,8 C4- | C4 B,4 C4 C4 | B,4 E4 E4 D4 | %54
w: Do- * * * * *|* mi- ne, tu|au- tem Do- mi-|ne, ne e-|* lon- ga- ve-|ris au- xi- li-|
 C4 E4 (E4 D2 C2 | B,2 A,2 B,4) (C8 | B,8) =G,8 | E,12 A,4- | A,4 =G,4 F,4 F,4 | E,4 E4 E4 =D4 | %60
w: um tu- um _ _|_ _ _ a|_ me,|ne e-|* lon- ga- ve-|ris au- xi- li-|
 B,4 (C6 D2 E2 C2) | D4 D4 E8 | z4 E4 E4 D4 | C4 D4 B,4 B,4 | A,4 E4 E4 E4 | D6 C2 B,4 A,4 | %66
w: um tu- * * *|um a me,|au- xi- li-|um tu- um a|me, au- xi- li-|um- tu- um a|
 B,8 z4 E,4- | (E,2 ^F,2 G,2 A,2) B,6 C2 | D4 (E8 D4) | B,4 (C8 B,2 A,2) | G,4 G6 E2 =F2 D2 | %71
w: me, ad|_ _ _ _ de- fen-|si- o- *|nem me- * *|am ad- * * *|
 E6 D2 C8 | B,8 z4 E4 | E4 (D2 C2 B,2 A,2 B,4) | A,4 C4 D8 | E8 A,6 B,2 | C2 D2 E6 ^D^C D4 | %77
w: * * spi-|ce, ad|de- fen- * * * si-|o- nem me-|am ad- *||
 E8 E,8 |] %78
w: spi- ce,|
V:3
 z16 | z16 | z16 | z8 E8 | (A12 G4) | F8 E6 F2 | G2 A2 B6 A2 A4- | (A4 ^G4) A8 | z4 =G4 A4 B4 | %9
w: |||De-|us _|me- us _|_ _ _ _ es|_ _ tu,|De- us me-|
 c4 d4 B8 | z4 c4 c4 e4 | d8 z4 (A2 B2 | c2 d2) (e8 d2 c2) | d2 c2 c2 BA B4 e4- | %14
w: us es tu,|De- us me-|us, ne _|_ _ di- * *|sce- * * * * das a|
 (e2 ^d^c d4) e8- | e16 | z16 | z4 A6 A2 =G4 | A4 F4 G4 A4 | D4 d6 d2 =c4 | d4 G4 A4 B4 | %21
w: _ _ _ _ me|_||quo- ni- am|tri- bu- la- ti-|o, quo- ni- am|tri- bu- la- ti-|
 E4 (e4 d4 B4 | c4) A4 B4 E4 | z4 d6 d2 ^c4 | d4 A4 =c4 B4 | A4 (B6 c2 d4) | G4 c4 (B8 | %27
w: o pro- * *|* xi- ma est,|quo- ni- am|tri- bu- la- ti-|o pro- * *|xi- ma est,|
 A4) A6 A2 G4 | A4 B4 c4 A4- | A2 G2 E4 F4 F4 | E8 z8 | (G6 A2) (B6 c2 |: d6 c2) (A6 B2 | %33
w: _ quo- ni- am|tri- bu- la- ti-|* o pro- xi- ma|est,|et _ non _|_ _ est _|
 c6 d2) (e6 dc | B4) (G4 A4) D4 | E4 (e8 d2 c2 | B4) A4 (=G6 F2 ||[M:3/1] E4) e4 (c4 d4) B8 ||1 %38
w: _ _ qui _ _|_ ad- * ju-|vet, et _ _|_ non est _|_ qui ad- * ju-|
[M:4/2] A8 z8 | (G6 A2) (B6 c2) :|2 A16 ||3 A16- || A16- | A16- | A16- | A16 |] z16 | z16 | z16 | %49
w: vet,|et _ non _|vet|vet.|_|||||||
 E8 A8- | A4 G4 c4 B2 A2 | B4 c6 B2 A4- | A4 !courtesy!^G4 A8 | E8 A4 A4 | =G4 B4 c4 A4 | %55
w: Tu au-|* tem Do- * *||* mi- ne,|ne e- lon-|ga- ve- ris au-|
 A4 !courtesy!^G4 (A6 =G2 | F4) F4 (E6 F2 | G4) A4 G4 c4 | B4 B4 d4 d4 | c4 B4 A4 B4 | %60
w: xi- li- um _|_ tu- um _|_ a me, ne|e- lon- ga- ve-|ris au- xi- li-|
 E4 A4 A4 A4 | (G6 F2 E4) c4 | c4 c4 B6 A2 | G4 !courtesy!=F4 E8 | z4 =c4 c4 c4 | B6 A2 G4 =F4 | %66
w: um tu- um a|me, _ _ au-|xi- li- um tu-|um a me,|au- xi- li-|um tu- um a|
 E8 z8 | z16 | z4 e4 c4 d4 | e4 E6 F2 G2 A2 | B2 E2 (e6 d2 c2 BA) | B8 A4 E2 F2 | %72
w: me||ad de- fen-|si- o- * * *|* * nem _ _ _ _|me- am a- *|
 G2 A2 B2 c2 d2 B2 c4- | c2 B2 A8 ^G4 | A4 e4 (d2 c2) B2 A2 | =G6 F2 E4 F4 | E4 E4 B8 | %77
w: |* * * spi-|ce, ad de _ fen- si-|o- nem me- am|ad- spi- ce,|
 z4 A6 A2 =G4 |] %78
w: quo- ni- am|
V:4
 z16 | z16 | z16 | z16 | A,,8 E,8- | (E,4 D,4) C,8 | B,,4 (D,6 C,2 B,,2 A,,2 | B,,8) A,,4 A,4 | %8
w: ||||De- us|_ _ me-|us es _ _ _|_ tu, De-|
 G,4 (B,4 A,4 G,4 | A,4) D,4 E,8 | A,8 A,4 A,4 | D,8 E,4 A,,4- | %12
w: us me- * *|* us es|tu, ne di-|sce- das a|
 A,,2 B,,2 C,2 D,2 E,2 F,2 G,2 A,2 | B,2 E,2 A,6 G,2 G,2 F,E, | F,8 E,4 E,4 | A,4 A,4 (C6 B,2 | %16
w: _ _ _ _ _ _ _ _||* me, ne|di- sce- das _|
 A,4) C4 B,8 | z8 B,6 B,2 | C4 A,2 A,2 B,4 A,4 | A,4 F,4 G,4 A,4 | D,4 z4 z4 B,,4 | %21
w: _ a me,|quo- ni-|am tri- bu- la- ti-|o pro- xi- ma|est, pro-|
 C,4 A,,4 (!courtesy!=F,4 E,4) | z4 A,6 A,2 =G,4 | A,4 ^F,4 G,4 A,4 | D,4 !courtesy!=F,4 E,4 E,4 | %25
w: xi- ma est, _|quo- ni- am|tri- bu- la- ti-|o pro- xi- ma|
 A,,4 E,6 E,2 D,4 | E,4 C,4 D,4 E,4 | A,,4 C,4 D,4 E,4 | A,,4 E,4 (C,4 D,4 | A,,4) C,4 B,,8 | %30
w: est, quo- ni- am|tri- bu- la- ti-|o pro- xi- ma|est, pro- xi- *|* ma est,|
 z8 E,8- | E,4 E,4 G,8 |: (D,6 E,2) F,6 G,2 | A,6 G,2 E,6 F,2 | G,2 A,2 B,6 A,2 A,4- | %35
w: et|_ non est|qui _ ad- *||* * * * ju-|
 (A,2 ^G,F, G,4) A,4 D,4 | E,4 A,,2 B,,2 C,2 D,2 E,2 F,2 ||[M:3/1] G,4 A,8 D,4 E,8 ||1 %38
w: * * * * vet, et|non est _ _ _ _ _|_ qui ad- ju-|
[M:4/2] A,,8 E,8- | E,4 E,4 G,8 :|2 A,,16 ||3 =F,12 E,4 || D,12 A,,4 | D,8 D,4 D,4 | A,,16- | %45
w: vet, et|_ non est|vet.|vet, et|non est|qui ad- ju-|vet.|
 A,,16 |] z16 | z16 | z16 | z8 A,,8 | E,12 D,4 | (G,4 =F,2 E,2 F,4) F,4 | E,8 z4 A,4 | %53
w: _||||Tu|au- tem|Do- * * * mi-|ne, ne|
 A,4 =G,4 ^F,4 F,4 | (E,6 D,2 C,4) D,4 | E,4 E,4 A,,8 | B,,8 C,8- | C,4 A,,4 (C,6 D,2 | %58
w: e- lon- ga- ve-|ris _ _ au-|xi- li- um,|au- xi-|* li um _|
 E,4) E,4 D,8 | A,,4 E,4 z8 | z16 | z8 z4 A,4 | A,4 A,4 =G,6 ^F,2 | E,4 (A,6 ^G,F, G,4) | A,16 | %65
w: _ tu- um|a me,||au-|xi- li- um tu-|um a _ _ _|me,|
 z16 | z8 (A,,6 B,,2 | C,2 D,2) E,6 F,2 (G,2 A,2) | B,4 C4 (A,4 B,4) | E,8 z8 | z4 C,4 C,4 =F,4 | %71
w: |ad _|_ _ de- fen- si- *|o- nem me- *|am,|ad de- fen-|
 E,4 E,4 (A,,2 B,,2 C,2 D,2) | (E,2 F,2) G,8 A,4- | A,4 D,4 E,8 | z4 A,4 D,4 (G,2 F,2 | %75
w: si- o- nem _ _ _|me- * am ad-|* spi- ce,|ad- spi- ce, _|
 E,2 D,2 C,4) C,4 D,4 | (A,,4 C,4 B,,8) | z8 B,6 B,2 |] %78
w: _ _ _ ad- spi-|ce, _ _|quo- ni-|

